src/assets/Icon.svg

<svg width="23" height="22" viewBox="0 0 23 22" fill="none" xmlns="http://www.w3.org/2000/svg">
<path d="M11.5 21C17.0228 21 21.5 16.5228 21.5 11C21.5 5.47715 17.0228 1 11.5 1C5.97715 1 1.5 5.47715 1.5 11C1.5 16.5228 5.97715 21 11.5 21Z" stroke="#344054" stroke-width="2" stroke-linecap="round" stroke-linejoin="round"/>
<path d="M9 7.96533C9 7.48805 9 7.24941 9.09974 7.11618C9.18666 7.00007 9.31971 6.92744 9.46438 6.9171C9.63038 6.90525 9.83112 7.03429 10.2326 7.29239L14.9532 10.3271C15.3016 10.551 15.4758 10.663 15.5359 10.8054C15.5885 10.9298 15.5885 11.0702 15.5359 11.1946C15.4758 11.337 15.3016 11.449 14.9532 11.6729L10.2326 14.7076C9.83112 14.9657 9.63038 15.0948 9.46438 15.0829C9.31971 15.0726 9.18666 14.9999 9.09974 14.8838C9 14.7506 9 14.512 9 14.0347V7.96533Z" stroke="#344054" stroke-width="2" stroke-linecap="round" stroke-linejoin="round"/>
</svg>

<svg xmlns="http://www.w3.org/2000/svg" width="23" height="22" fill="none"><path stroke="#344054" stroke-linecap="round" stroke-linejoin="round" stroke-width="2" d="M11.5 21c5.523 0 10-4.477 10-10s-4.477-10-10-10-10 4.477-10 10 4.477 10 10 10"/><path stroke="#344054" stroke-linecap="round" stroke-linejoin="round" stroke-width="2" d="M9 7.965c0-.477 0-.716.1-.849a.5.5 0 0 1 .364-.199c.166-.012.367.117.769.375l4.72 3.035c.349.224.523.336.583.478a.5.5 0 0 1 0 .39c-.06.142-.234.254-.583.478l-4.72 3.035c-.402.258-.603.387-.769.375a.5.5 0 0 1-.364-.2c-.1-.132-.1-.371-.1-.848z"/></svg>
